assets/images/card/elkron.svg

<svg width="188" height="80" viewBox="0 0 188 80" fill="none" xmlns="http://www.w3.org/2000/svg">
<rect width="188" height="80" fill="#F6F6F6"/>
<path d="M125.695 42.6409C125.695 43.9096 125.948 44.7631 126.456 45.2244C126.963 45.6627 127.932 45.8934 129.339 45.8934H130.285L128.855 49.7687H128.232C125.625 49.7687 123.78 49.2612 122.696 48.2463C121.612 47.2313 121.058 45.5243 121.058 43.1253V37.0125C121.058 34.3828 121.589 32.5605 122.627 31.5686C123.665 30.5767 125.556 30.0923 128.232 30.0923H131.254L129.801 33.9445H129.408C127.955 33.9445 126.963 34.1752 126.456 34.6596C125.948 35.144 125.695 36.0667 125.695 37.4507V42.6409ZM24.6596 42.9638H20C20 45.5935 20.4613 47.3928 21.384 48.3155C22.3067 49.2382 24.1983 49.6995 27.0355 49.6995H35.6858C38.3847 49.6995 40.2301 49.2151 41.245 48.2232C42.26 47.2313 42.7675 45.432 42.7675 42.8254V37.2893C42.7675 34.4751 42.2369 32.5374 41.1527 31.5224C40.0916 30.5075 38.1079 30 35.2475 30H27.4969C24.9595 30 23.1372 30.4383 22.0299 31.3148C20.669 32.3759 20 34.1983 20 36.7818H24.6596C24.6596 35.7438 24.9364 35.0056 25.5131 34.5443C26.0898 34.0829 27.0355 33.8522 28.3965 33.8522H34.3709C35.9165 33.8522 36.9314 34.0829 37.4158 34.5212C37.9002 34.9595 38.1309 35.9283 38.1309 37.4507V37.9582H31.3953V41.9258H38.1309V42.2949C38.1309 43.7251 37.831 44.6939 37.2544 45.1783C36.7469 45.6166 35.7781 45.8242 34.3709 45.8242H28.3965C26.9663 45.8242 25.9975 45.6397 25.5131 45.2936C24.9364 44.8784 24.6596 44.0941 24.6596 42.9638ZM44.1515 49.7687H49.5262L57.5998 34.1521H58.1534L66.3653 49.7687H71.6939L61.2675 30.2768H54.5318L44.1515 49.7687ZM77.899 30.2768V37.5661H80.644L89.1559 30.2768H96.1453L84.6577 39.4345L96.5835 49.7687H89.7325L80.7363 41.4414H77.899V49.7687H73.2394V30.2768H77.899ZM103.227 44.0249V49.7687H98.5673V30.2768H111.831C114.299 30.2768 116.052 30.8074 117.113 31.8454C118.152 32.8834 118.682 34.6365 118.682 37.1047C118.682 39.5729 118.152 41.3491 117.113 42.4102C116.075 43.4713 114.322 44.0249 111.9 44.0249H103.227ZM103.227 40.1496H111.001C112.131 40.1496 112.938 39.919 113.377 39.4576C113.815 38.9963 114.046 38.212 114.046 37.1047C114.046 36.0667 113.838 35.3286 113.446 34.9133C113.007 34.4059 112.177 34.1521 111.001 34.1521H103.227V40.1496ZM151.299 30.2768V37.7737H163.34V30.2768H168V49.7687H163.34V41.649H151.299V49.7918H146.64V30.2768H151.299ZM132.638 45.8934H135.521C137.021 45.8934 137.989 45.6858 138.474 45.2475C138.935 44.8092 139.166 43.9327 139.166 42.6178V37.4277C139.166 36.0436 138.912 35.1209 138.382 34.6596C137.92 34.2444 137.067 34.0137 135.844 33.9676L133.099 38.8117H137.228L132.638 45.8934ZM136.167 30.0692H136.767C139.281 30.0692 141.08 30.5305 142.095 31.4763C143.226 32.5143 143.802 34.3367 143.802 37.0125V43.1253C143.802 45.5935 143.295 47.3236 142.303 48.2924C141.311 49.2843 139.466 49.7687 136.767 49.7687H130.147L133.491 40.7032H128.97L132.892 30.0692H136.167Z" fill="#313131"/>
</svg>

<svg width="188" height="80" fill="none" xmlns="http://www.w3.org/2000/svg"><path fill="#F6F6F6" d="M0 0h188v80H0z"/><path d="M125.695 42.64c0 1.27.253 2.123.761 2.584.507.439 1.476.67 2.883.67h.946l-1.43 3.875h-.623c-2.607 0-4.452-.508-5.536-1.523-1.084-1.015-1.638-2.722-1.638-5.12v-6.113c0-2.63.531-4.453 1.569-5.444 1.038-.992 2.929-1.477 5.605-1.477h3.022l-1.453 3.852h-.393c-1.453 0-2.445.231-2.952.716-.508.484-.761 1.407-.761 2.79v5.19zm-101.035.324H20c0 2.63.461 4.429 1.384 5.352.923.922 2.814 1.383 5.651 1.383h8.65c2.7 0 4.545-.484 5.56-1.476 1.015-.992 1.523-2.791 1.523-5.398V37.29c0-2.814-.531-4.752-1.615-5.767C40.092 30.508 38.108 30 35.248 30h-7.751c-2.538 0-4.36.438-5.467 1.315-1.361 1.06-2.03 2.883-2.03 5.467h4.66c0-1.038.276-1.776.853-2.238.577-.461 1.522-.692 2.883-.692h5.975c1.545 0 2.56.23 3.045.67.484.438.715 1.406.715 2.929v.507h-6.736v3.968h6.736v.369c0 1.43-.3 2.399-.877 2.883-.507.439-1.476.646-2.883.646h-5.975c-1.43 0-2.399-.184-2.883-.53-.577-.416-.853-1.2-.853-2.33zm19.491 6.805h5.375L57.6 34.152h.553l8.212 15.617h5.329L61.267 30.277h-6.735l-10.38 19.492zM77.9 30.277v7.29h2.745l8.512-7.29h6.99l-11.488 9.157L96.583 49.77h-6.85l-8.997-8.328H77.9v8.328h-4.66V30.277h4.66zm25.328 13.748v5.744h-4.66V30.277h13.264c2.468 0 4.221.53 5.282 1.568 1.039 1.038 1.569 2.791 1.569 5.26 0 2.468-.53 4.244-1.569 5.305-1.038 1.061-2.791 1.615-5.213 1.615h-8.673zm0-3.875h7.774c1.13 0 1.937-.231 2.376-.692.438-.462.669-1.246.669-2.353 0-1.038-.208-1.776-.6-2.192-.439-.507-1.269-.76-2.445-.76h-7.774v5.997zm48.072-9.873v7.497h12.041v-7.497H168v19.492h-4.66v-8.12h-12.041v8.143h-4.659V30.277h4.659zm-18.661 15.616h2.883c1.5 0 2.468-.207 2.953-.645.461-.439.692-1.315.692-2.63v-5.19c0-1.384-.254-2.307-.784-2.768-.462-.416-1.315-.646-2.538-.692l-2.745 4.844h4.129l-4.59 7.081zm3.529-15.824h.6c2.514 0 4.313.462 5.328 1.407 1.131 1.038 1.707 2.86 1.707 5.537v6.112c0 2.468-.507 4.199-1.499 5.167-.992.992-2.837 1.477-5.536 1.477h-6.62l3.344-9.066h-4.521l3.922-10.634h3.275z" fill="#313131"/></svg>
